X: 16
T: Banshee, The
C: James McMahon
Z: NfldWhistler
S: https://thesession.org/tunes/8#setting48097
R: reel
M: 4/4
L: 1/8
K: Gmaj
|:G2GD EDD2|GFGB d2 B/c/d|eged BAGA|BAGE EDDE|
G2 GD EDD2|GFGB d2 B/c/d|eged BAGA|BAGE EDD2:|
|:eaag efge|dBBA B2 B/c/d|eB~B2 gBfB|eBBA B2 B/c/d|
eaag efge|dBBA B2 B/c/d|eged BAGA|BAGE EDD2:|

